!!!!SEGMENT: Snf0112-De_profundis_clamavi_I--Zwickau_1676_1788.krn
!!!id: Snf0112
!!!AGN: Motet
!!!SCT: Edwards, Gasch, Tröster (2021)
!!!voices: 3
!!!COM: Ludwig Senfl
!!!OTL: De profundis clamavi I (Zwickau 1676-1788)
**kern	**text	**kern	**text	**kern	**text
*part3	*part3	*part2	*part2	*part1	*part1
*staff3	*staff3	*staff2	*staff2	*staff1	*staff1
*I"Bassus	*	*I"Tenor	*	*I"Superius	*
*I'B	*	*I'T	*	*I'S	*
*clefF4	*	*clefGv2	*	*clefG2	*
*	*	*	*	*	*
*k[]	*	*k[]	*	*k[]	*
*	*	*	*	*	*
*M2/1	*	*M2/1	*	*M2/1	*
*met(C|)	*	*met(C|)	*	*met(C|)	*
!!section: Prima pars: De profundis clamavi
!!!OMD: Prima pars: De profundis clamavi
=1	=1	=1	=1	=1	=1
!	!	!	!	!LO:TX:a:t=Altus not extant	!
0r	.	0r	.	0r	.
=2	=2	=2	=2	=2	=2
0r	.	0r	.	1cc	De
.	.	.	.	1b	pro-
=3	=3	=3	=3	=3	=3
0r	.	0r	.	1cc	-fun-
.	.	.	.	1a	-dis
=4	=4	=4	=4	=4	=4
0r	.	0r	.	1r	.
.	.	.	.	1g	cla-
=5	=5	=5	=5	=5	=5
0r	.	0r	.	1f	.
.	.	.	.	1g	-ma-
=6	=6	=6	=6	=6	=6
0r	.	0r	.	1a	-vi
.	.	.	.	1r	.
=7	=7	=7	=7	=7	=7
0r	.	0r	.	1cc	ad
.	.	.	.	1a	te,
=8	=8	=8	=8	=8	=8
0F	De	0r	.	1a	Do-
.	.	.	.	1f	-mi-
=9	=9	=9	=9	=9	=9
0E	pro-	0r	.	1g	.
.	.	.	.	1g	-ne,
=10	=10	=10	=10	=10	=10
0F	-fun-	0c	De	2r	.
.	.	.	.	2.a	ad
.	.	.	.	4b	.
.	.	.	.	2cc	te
=11	=11	=11	=11	=11	=11
0D	-dis	0B	pro-	2.dd	Do-
.	.	.	.	4d	-mi-
.	.	.	.	1d	-ne,
=12	=12	=12	=12	=12	=12
0r	.	0c	-fun-	2r	.
.	.	.	.	2.e	Do-
.	.	.	.	4f	.
.	.	.	.	[2g	.
=13	=13	=13	=13	=13	=13
0r	.	0A	-dis	2g]	.
.	.	.	.	4f	.
.	.	.	.	4e	.
.	.	.	.	1f	-mi-
=14	=14	=14	=14	=14	=14
0C	cla-	0r	.	1.g	-ne,
.	.	.	.	4f	.
.	.	.	.	4e	.
=15	=15	=15	=15	=15	=15
0BB	.	0r	.	1d	.
.	.	.	.	2r	.
.	.	.	.	2d	de
=16	=16	=16	=16	=16	=16
0C	-ma-	0G	cla-	2c	pro-
.	.	.	.	2.e	.
.	.	.	.	4d	.
.	.	.	.	4c	.
.	.	.	.	4B	.
=17	=17	=17	=17	=17	=17
0D	-vi	0F	.	2A	.
.	.	.	.	2.a	-fun-
.	.	.	.	4g	.
.	.	.	.	4f	.
.	.	.	.	4e	.
=18	=18	=18	=18	=18	=18
0r	.	0G	-ma-	2d	.
.	.	.	.	2e	.
.	.	.	.	1d	-dis
=19	=19	=19	=19	=19	=19
0F	ad	0A	-vi	1c	.
.	.	.	.	2r	.
.	.	.	.	2cc	cla-
=20	=20	=20	=20	=20	=20
0D	te,	0r	.	2b	-ma-
.	.	.	.	1a	.
.	.	.	.	4g	.
.	.	.	.	4f	.
=21	=21	=21	=21	=21	=21
0r	.	0c	ad	2g	.
.	.	.	.	1a	-vi
.	.	.	.	2g	ad
=22	=22	=22	=22	=22	=22
0D	Do-	0A	te,	1a	te,
.	.	.	.	2r	.
.	.	.	.	[2dd	Do-
=23	=23	=23	=23	=23	=23
1BB	-mi-	0r	.	2dd]	.
.	.	.	.	2dd	-mi-
1C	.	.	.	1g	-ne,
=24	=24	=24	=24	=24	=24
0C	-ne,	0r	.	2r	.
.	.	.	.	1cc	Do-
.	.	.	.	2cc	-mi-
=25	=25	=25	=25	=25	=25
0r	.	0A	Do-	1f	-ne,
.	.	.	.	2r	.
.	.	.	.	[2a	Do-
=26	=26	=26	=26	=26	=26
0r	.	1F	-mi-	2a]	.
.	.	.	.	2a	-mi-
.	.	1G	.	2d	-ne,
.	.	.	.	[2g	Do-
=27	=27	=27	=27	=27	=27
0G	Do-	0G	-ne,	2g]	.
.	.	.	.	2g	-mi-
.	.	.	.	2c	-ne,
.	.	.	.	[2e	[Do-
=28	=28	=28	=28	=28	=28
1E	-mi-	0r	.	2e]	.
.	.	.	.	2e	-mi-
1F	.	.	.	1A	-ne,]
=29	=29	=29	=29	=29	=29
0F	-ne,	0d	Do-	2r	.
.	.	.	.	1a	Do-
.	.	.	.	2a	-mi-
=30	=30	=30	=30	=30	=30
0r	.	1B	-mi-	1d	-ne,
.	.	1c	.	2r	.
.	.	.	.	[2e	[Do-
=31	=31	=31	=31	=31	=31
0A	Do-	[0c	-ne,	2e]	.
.	.	.	.	2e	-mi-
.	.	.	.	2A	-ne,]
.	.	.	.	[2a	Do-
=32	=32	=32	=32	=32	=32
1F	-mi-	1c]	.	2a]	.
.	.	.	.	2a	-mi-
1G	.	2r	.	2.g	-ne,
.	.	[2B	ad	.	.
.	.	.	.	4f	.
=33	=33	=33	=33	=33	=33
[0G	-ne,	2B]	.	2e	.
.	.	2B	te,	2d	.
.	.	2.B	Do-	2.g	Do-
.	.	4c	.	4a	.
=34	=34	=34	=34	=34	=34
0G]	.	2d	.	2b	.
.	.	2e	.	1cc	.
.	.	1d	-mi-	.	.
.	.	.	.	2b	-mi-
=35	=35	=35	=35	=35	=35
1C	de	1c	-ne,	2cc	-ne,
.	.	.	.	1g	de
1BB	pro-	1r	.	.	.
.	.	.	.	2g	pro-
=36	=36	=36	=36	=36	=36
1C	-fun-	1G	de	1g	-fun-
1AA	-dis	1F	pro-	1a	-dis
=37	=37	=37	=37	=37	=37
0r	.	1G	-fun-	2r	.
.	.	.	.	2d	cla-
.	.	1E	-dis	2e	.
.	.	.	.	[2g	.
=38	=38	=38	=38	=38	=38
0r	.	0r	.	2g]	.
.	.	.	.	2f	.
.	.	.	.	2g	.
.	.	.	.	2G	-ma-
=39	=39	=39	=39	=39	=39
1r	.	0r	.	2A	.
.	.	.	.	1c	.
1GG	cla-	.	.	.	.
.	.	.	.	2B	.
=40	=40	=40	=40	=40	=40
1FF	.	1r	.	2c	-vi,
.	.	.	.	2cc	cla-
1GG	-ma-	1D	cla-	4b	.
.	.	.	.	4a	.
.	.	.	.	4g	.
.	.	.	.	4f	.
=41	=41	=41	=41	=41	=41
1AA	-vi	1C	.	2e	.
.	.	.	.	2c	.
1r	.	1D	-ma-	1f	-ma-
=42	=42	=42	=42	=42	=42
1C	ad	1E	-vi	0e	-vi
1AA	te,	1r	.	.	.
=43	=43	=43	=43	=43	=43
0r	.	1G	ad	1d	ad
.	.	1E	te,	1e	te,
=44	=44	=44	=44	=44	=44
1r	.	1E	Do-	2r	.
.	.	.	.	1e	Do-
1AA	Do-	1C	-mi-	.	.
.	.	.	.	2e	-mi-
=45	=45	=45	=45	=45	=45
1FF	-mi-	1D	.	2A	-ne,
.	.	.	.	2a	Do-
1GG	.	1D	-ne,	2.b	.
.	.	.	.	4cc	.
=46	=46	=46	=46	=46	=46
1GG	-ne,	1r	.	1dd	.
1r	.	1A	Do-	2.cc	.
.	.	.	.	4b	.
=47	=47	=47	=47	=47	=47
1D	Do-	1F	-mi-	4a	.
.	.	.	.	4g	.
.	.	.	.	4f	.
.	.	.	.	4e	.
1BB	-mi-	1G	.	1d	.
=48	=48	=48	=48	=48	=48
1C	.	1G	-ne,	2c	-mi-
.	.	.	.	2.g	-ne,
1C	-ne,	1r	.	.	.
.	.	.	.	4f	.
.	.	.	.	[2e	.
=49	=49	=49	=49	=49	=49
1r	.	1B	Do-	2e]	.
.	.	.	.	2d	.
1E	Do-	1G	-mi-	1e	.
=50	=50	=50	=50	=50	=50
1C	-mi-	1A	.	2r	.
.	.	.	.	2e	Do-
1D	.	1A	-ne,	2.f	.
.	.	.	.	4d	-mi-
=51	=51	=51	=51	=51	=51
1D	-ne,	2r	.	1d	-ne,
.	.	2d	Do-	.	.
2r	.	2.e	.	2g	Do-
[2A	Do-	.	.	2e	-mi-
.	.	4c	-mi-	.	.
=52	=52	=52	=52	=52	=52
2A]	.	1c	-ne,	2e	-ne,
2A	-mi-	.	.	1a	Do-
1D	-ne,	2r	.	.	.
.	.	[2d	Do-	2a	-mi-
=53	=53	=53	=53	=53	=53
2r	.	2d]	.	1d	-ne,
1G	Do-	2B	-mi-	.	.
.	.	1B	-ne	2r	.
2G	-mi-	.	.	[2g	Do-
=54	=54	=54	=54	=54	=54
1C	-ne	2r	.	2g]	.
.	.	1c	Do-	2g	-mi-
2r	.	.	.	2c	-ne,
[2E	[Do-	2G	-mi-	[2g	Do-
=55	=55	=55	=55	=55	=55
2E]	.	1G	-ne,	2g]	.
2E	-mi-	.	.	2e	-mi-
1AA	-ne,]	2r	.	1e	-ne,
.	.	[2A	Do-	.	.
=56	=56	=56	=56	=56	=56
2r	.	2A]	.	2r	.
1D	Do-	2F	-mi-	1f	Do-
.	.	1F	-ne,	.	.
2D	-mi-	.	.	2d	-mi-
=57	=57	=57	=57	=57	=57
2GG	-ne,	4G	Do-	1d	-ne,
.	.	4A	.	.	.
1G	Do-	4B	.	.	.
.	.	4c	.	.	.
.	.	4d	.	2g	Do-
.	.	4e	.	.	.
2D	.	4f	.	[2a	.
.	.	4e	.	.	.
=58	=58	=58	=58	=58	=58
2F	.	4d	.	2a]	.
.	.	4c	.	.	.
2G	.	2.e	.	1g	.
1A	.	.	.	.	.
.	.	4d	.	.	.
.	.	[2c	.	2f#i	.
=59	=59	=59	=59	=59	=59
1G	-mi-	2c]	.	2g	.
.	.	2B	-mi-	2d	.
1C	.	2.c	-ne,	2.e	.
.	.	4G	.	4c	-mi-
=60	=60	=60	=60	=60	=60
1E	-ne,	2.G	Do-	1c	-ne,
.	.	4A	.	.	.
2.D	Do-	4B	.	4d	Do-
.	.	4c	.	4e	.
.	.	[2d	.	4f	.
4E	.	.	.	4g	.
=61	=61	=61	=61	=61	=61
4F	.	2d]	.	4a	.
4G	.	.	.	4b	.
2A	.	1c	.	4cc	.
.	.	.	.	4b	.
2F	.	.	.	4a	.
.	.	.	.	4g	.
[2G	.	4B	.	[2b	.
.	.	4A	.	.	.
=62	=62	=62	=62	=62	=62
2G]	.	2B	.	4b]	.
.	.	.	.	4a	.
2C	.	2c	.	1g	.
1D	-mi-	1A	-mi-	.	.
.	.	.	.	2f#i	-mi-
=63	=63	=63	=63	=63	=63
00GGl	-ne.	00Gl	-ne.	00gl	-ne.
==	==	==	==	==	==
*-	*-	*-	*-	*-	*-
!!!system-decoration: [*]
!!!RDF**kern: i = editorial accidental
!!!RDF**kern: l = terminal long
!!!PTL: <i> New Senfl Edition: Motets for Four Voices (A-I) </i>
!!!PPR: Hollitzer Verlag
!!!PC#: Denkmäler der Tonkunst in Österreich 163.1
!!!PDT: 2021
!!!PED: Scott Lee Edwards, Stefan Gasch, and Sonja Tröster
!!!YEC: Copyright 2021 Denkmäler der Tonkunst in Österreich
!!!YEM: CC-BY-NC 4.0 (https://creativecommons.org/licenses/by-nc/4.0/legalcode)
!!!EED: Benjamin Ory
!!!EEV: 2023/10/28
!!!verovio: header true
!!!header-left: @{PTL}\n@{PED}, eds.\n@{PC#} (@{PDT})&nbsp;\n
!!!header-right:
!!!header-center:
